assets/Love-you gesture/Medium-Light/Flat/love-you_gesture_flat_medium-light.svg

<svg width="32" height="32" viewBox="0 0 32 32" fill="none" xmlns="http://www.w3.org/2000/svg">
<path d="M28.4531 13.6562C27.8456 12.8462 26.3125 12.3125 25.0781 12.9531C23.8438 13.5938 22.948 14.2473 22.5781 14.5938C22.5781 14.5938 21.9844 15.1719 21.9844 14.3438V4.84375C21.9844 3.17188 20.7969 2 19.2969 2C17.8906 2 16.6094 3.25 16.6094 4.84375V8.53476C16.2155 7.70472 15.5327 7.375 14.6641 7.375C13 7.375 12.2644 8.38857 12.0612 9.7719C11.5704 9.29409 10.9014 9 10.1641 9C9.29151 9 8.51469 9.41181 8.01562 10.0525V8.67188C8.01562 7.01562 6.89062 6 5.45312 6C4.01562 6 2.96875 7.3125 2.96875 8.67188C2.96875 10.0312 3.04688 20.7031 3.04688 20.7031C3.04688 26.7031 7.57813 29.98 12.7639 29.98C15.4725 29.98 18.057 28.7393 19.8438 26.875C21.0322 25.635 21.8958 24.1436 22.6113 22.908C23.0794 22.0994 23.4842 21.4004 23.875 20.9531C25.1076 19.5425 26.5922 18.48 27.6345 17.7341C27.7813 17.629 27.9196 17.5301 28.0469 17.4375C29.0781 16.6875 29.3606 14.8663 28.4531 13.6562Z" fill="#EEBFAA"/>
<path d="M17.5597 5.53923L17.5612 5.5058C17.5838 4.9845 17.6187 4.17628 17.8631 3.44385C18.0981 2.73959 18.493 2.19535 19.1875 2.0025C17.8249 2.06517 16.6094 3.2914 16.6094 4.84374V8.53476C16.8514 9.04476 16.9844 9.74363 16.9844 10.671L16.9844 13.704C16.9844 15.4905 16.5178 16.945 14.7651 16.9985C14.4966 16.978 14.228 16.9621 13.9615 16.9499C13.1036 16.8164 12.6198 16.4263 12.3475 15.9015C12.0293 15.2881 12 14.4907 12 13.704V10.671C12 10.3593 12.0192 10.0577 12.0612 9.77189C11.8335 9.55025 11.5675 9.36813 11.2741 9.23657C11.207 9.56176 11.1602 9.95851 11.1602 10.4171C11.1602 10.8576 11.1482 11.4609 11.1349 12.126L11.131 12.3214C11.1163 13.0597 11.1016 13.856 11.1016 14.5625C11.1016 15.3991 11.3569 16.0538 11.6168 16.5792C11.3307 16.7605 11.0088 16.8898 10.6641 16.954C10.4051 16.9645 10.1564 16.9765 9.92067 16.9892C9.09063 16.9155 8.36745 16.468 7.91888 15.8153C7.61531 15.3736 7.4375 14.8379 7.4375 14.2605V11.7395C7.4375 11.3538 7.51682 10.9868 7.65997 10.6539C7.69017 10.5627 7.72923 10.4733 7.7785 10.3835C7.83814 10.2748 7.91535 10.1608 8.01554 10.0397V8.65851C7.49914 9.07635 7.13503 9.47737 6.90179 9.90247C6.65719 10.3483 6.5743 10.788 6.5743 11.2422C6.5743 11.3695 6.57272 11.5022 6.57009 11.6406H6.55467C6.56015 11.8192 6.55903 12.021 6.55463 12.2408L6.54604 12.5277C6.54058 12.7108 6.53509 12.9009 6.53039 13.0974C6.45877 15.5222 6.44697 19 9.32704 19C10.6667 19 11.2074 18.5136 11.6382 17.9248C11.6924 17.9238 11.7468 17.9228 11.8015 17.9219C12.1912 18.5372 12.9687 19 14.207 19C15.1406 19 15.817 18.6891 16.3063 18.1857C16.698 18.2508 17.0717 18.3295 17.4204 18.4237C16.9132 18.5942 16.3044 18.8256 15.6417 19.1321C13.8216 19.974 11.5675 21.3957 9.90641 23.7083C9.74531 23.9326 9.79652 24.245 10.0208 24.4061C10.2451 24.5672 10.5575 24.516 10.7186 24.2917C12.245 22.1668 14.3346 20.8385 16.0615 20.0397C16.9227 19.6414 17.6868 19.3779 18.234 19.2144C18.5073 19.1328 18.7259 19.0762 18.8745 19.0404C18.9488 19.0225 19.0056 19.0098 19.043 19.0018L19.0842 18.9931L19.0934 18.9912L19.0948 18.9909C19.3015 18.9508 19.4613 18.7855 19.494 18.5775C19.5266 18.3694 19.4253 18.1631 19.2406 18.0617C18.5904 17.7047 17.7882 17.4544 16.9184 17.2809C17.6066 15.8275 17.5816 13.75 17.5637 12.2603C17.5622 12.1336 17.5607 12.0104 17.5597 11.893L17.5597 5.53923Z" fill="#D6A089"/>
</svg>

<svg xmlns="http://www.w3.org/2000/svg" width="32" height="32" fill="none"><path fill="#EEBFAA" d="M28.453 13.656c-.607-.81-2.14-1.344-3.375-.703-1.234.64-2.13 1.294-2.5 1.64 0 0-.594.579-.594-.25v-9.5C21.984 3.173 20.797 2 19.297 2c-1.406 0-2.688 1.25-2.688 2.844v3.69c-.394-.83-1.076-1.159-1.945-1.159-1.664 0-2.4 1.014-2.603 2.397a2.717 2.717 0 0 0-4.046.28v-1.38C8.016 7.016 6.892 6 5.454 6 4.016 6 2.97 7.313 2.97 8.672c0 1.36.078 12.031.078 12.031 0 6 4.531 9.277 9.717 9.277 2.709 0 5.293-1.24 7.08-3.105 1.188-1.24 2.052-2.731 2.767-3.967.468-.809.873-1.508 1.264-1.955 1.233-1.41 2.717-2.473 3.76-3.219.146-.105.285-.204.412-.297 1.031-.75 1.314-2.57.406-3.78Z"/><path fill="#D6A089" d="m17.56 5.54.001-.034c.023-.522.058-1.33.302-2.062.235-.704.63-1.249 1.325-1.442-1.363.063-2.579 1.29-2.579 2.842v3.69c.242.51.375 1.21.375 2.137v3.033c0 1.787-.466 3.241-2.219 3.294-.268-.02-.537-.036-.804-.048-.857-.134-1.341-.524-1.614-1.048-.318-.614-.347-1.411-.347-2.198v-3.033c0-.312.02-.613.061-.9a2.731 2.731 0 0 0-.787-.534 5.868 5.868 0 0 0-.114 1.18c0 .44-.012 1.044-.025 1.709l-.004.195c-.015.739-.03 1.535-.03 2.242 0 .836.256 1.49.516 2.016-.286.181-.608.31-.953.375-.259.01-.508.023-.743.035a2.736 2.736 0 0 1-2.483-2.729v-2.52c0-.386.079-.753.222-1.086.03-.091.07-.18.119-.27.06-.11.136-.223.237-.344V8.659c-.517.417-.881.818-1.114 1.243a2.69 2.69 0 0 0-.328 1.34c0 .127-.001.26-.004.399h-.015c.005.178.004.38 0 .6l-.009.287-.016.57C6.46 15.521 6.447 19 9.327 19c1.34 0 1.88-.486 2.311-1.075l.164-.003c.39.615 1.167 1.078 2.405 1.078.934 0 1.61-.31 2.1-.814.391.065.765.143 1.113.238-.507.17-1.116.402-1.778.708-1.82.842-4.074 2.264-5.736 4.576a.5.5 0 1 0 .813.584c1.526-2.125 3.616-3.454 5.342-4.252a16.446 16.446 0 0 1 2.173-.826 12.478 12.478 0 0 1 .809-.212l.041-.009.01-.002a.5.5 0 0 0 .147-.93c-.65-.356-1.453-.607-2.323-.78.689-1.453.664-3.531.646-5.02l-.004-.368V5.539Z"/></svg>
